static/images/clients/svg/ne.svg

<svg height="33" viewBox="0 0 45 33" width="45" xmlns="http://www.w3.org/2000/svg" xmlns:xlink="http://www.w3.org/1999/xlink"><defs><path id="a" d="m.0045302.05436242h44.9262332v32.26107378h-44.9262332z"/><mask id="b" fill="#fff"><use fill="#fff" fill-rule="evenodd" xlink:href="#a"/></mask></defs><g fill="none" fill-rule="evenodd"><use fill="#fff" xlink:href="#a"/><path d="m1.09540268 31.2813423h42.73920302v-30.13437082h-42.73920302zm-1.09540268 1.0340939h44.9307634v-32.26107378h-44.9307634z" fill="#000" mask="url(#b)"/><path d="m8.31035235 25.9124542.197-.3498871m-.086.5.197-.3502633" stroke="#1a1919" stroke-width=".01"/><path d="m37.788599 26.6909648h-13.7429698s-13.5789765-16.5649833-13.6604446-16.514396v13.9207802c0 1.7236661 2.2576258 2.4540856 2.2576258 2.4540856.0005285-.0027182.0590436.1395302.0601007.1395302h-5.66184566c.00151006-.0050588.05670302-.1353776.05753355-.1362081.00120806-.001057 1.36608222-.3902768 1.36608222-2.4589933 0-4.0361074-.01291108-11.8740352-.00770134-15.94109897.00128355-1.14863255-1.20729866-2.17374161-2.48526846-2.55699664l-.06206376-.14519296h5.29746645l12.734245 15.91414427-.0014346-13.1157634c0-1.26430369-.9638758-2.22682047-2.226896-2.655l-.0621392-.14338087h14.9485318v4.24774329c-.0632718-.03027684-.1364345-.0584396-.1364345-.0584396s-.4943205-1.50485738-1.6338171-2.1038255c-.3855957-.2024245-2.6008641-.1328104-7.4432718-.1328104v6.67434568h7.3793204c1.2664178 0 1.5858725-1.1856292 1.6005957-1.1915185.0145721-.0063423.0495302-.0209144.1374161-.0597232 0 0 .0070973 3.1265185.0070973 4.621787-.0767114-.032089-.1383222-.0588927-.1383222-.0588927s-.3377265-1.3862416-1.6078439-1.3862416h-7.3782634v8.7608054c4.7439513 0 7.6811828.1951007 8.9990939-.4819379 1.0165017-.5334312 1.7275923-2.5048994 1.7275923-2.5048994s.0694631-.0274832.1420218-.0618372c-.1616527 1.7141527-.3030705 3.2001342-.4660067 4.9739346zm-35.59749162 3.5562835h40.54854862v-28.06618286h-40.54854862z" fill="#000"/></g></svg>

<?xml version="1.0" encoding="UTF-8"?>
<svg width="45px" height="33px" viewBox="0 0 45 33" version="1.1" xmlns="http://www.w3.org/2000/svg" xmlns:xlink="http://www.w3.org/1999/xlink">
    <!-- Generator: Sketch 54.1 (76490) - https://sketchapp.com -->
    <title>NE_vektor_tryck_negativ</title>
    <desc>Created with Sketch.</desc>
    <defs>
        <polygon id="path-1" points="0.00453020134 0.0543624161 44.9307634 0.0543624161 44.9307634 32.3154362 0.00453020134 32.3154362"></polygon>
    </defs>
    <g id="Symbols" stroke="none" stroke-width="1" fill="none" fill-rule="evenodd">
        <g id="Toppmeny" transform="translate(-72.000000, -24.000000)">
            <g id="NE_vektor_tryck_negativ">
                <g transform="translate(72.000000, 24.000000)">
                    <g id="Group-5">
                        <mask id="mask-2" fill="white">
                            <use xlink:href="#path-1"></use>
                        </mask>
                        <use id="Clip-4" fill="#FFFFFF" xlink:href="#path-1"></use>
                        <path d="M1.09540268,31.2813423 L43.8346057,31.2813423 L43.8346057,1.14697148 L1.09540268,1.14697148 L1.09540268,31.2813423 Z M0,32.3154362 L44.9307634,32.3154362 L44.9307634,0.0543624161 L0,0.0543624161 L0,32.3154362 Z" id="Fill-3" fill="#000000" mask="url(#mask-2)"></path>
                    </g>
                    <path d="M8.31035235,25.9124542 L8.50735235,25.5625671 M8.42135235,26.0625671 L8.61835235,25.7123038" id="Stroke-1" stroke="#1A1919" stroke-width="0.01"></path>
                    <path d="M37.788599,26.6909648 L24.0456292,26.6909648 C24.0456292,26.6909648 10.4666527,10.1259815 10.3851846,10.1765688 L10.3851846,24.097349 C10.3851846,25.8210151 12.6428104,26.5514346 12.6428104,26.5514346 C12.6433389,26.5487164 12.701854,26.6909648 12.7029111,26.6909648 L7.04106544,26.6909648 C7.0425755,26.685906 7.09776846,26.5555872 7.09859899,26.5547567 C7.09980705,26.5536997 8.46468121,26.1644799 8.46468121,24.0957634 C8.46468121,20.059656 8.45177013,12.2217282 8.45697987,8.15466443 C8.45826342,7.00603188 7.24968121,5.98092282 5.97171141,5.59766779 L5.90964765,5.45247483 L11.2071141,5.45247483 L23.9413591,21.3666191 L23.9399245,8.2508557 C23.9399245,6.98655201 22.9760487,6.02403523 21.7130285,5.5958557 L21.6508893,5.45247483 L36.5994211,5.45247483 L36.5994211,9.70021812 C36.5361493,9.66994128 36.4629866,9.64177852 36.4629866,9.64177852 C36.4629866,9.64177852 35.9686661,8.13692114 34.8291695,7.53795302 C34.4435738,7.33552852 32.2283054,7.40514262 27.3858977,7.40514262 C27.3858977,7.63346477 27.3858977,14.0794883 27.3858977,14.0794883 C27.3858977,14.0794883 32.9329027,14.0794883 34.7652181,14.0794883 C36.0316359,14.0794883 36.3510906,12.8938591 36.3658138,12.8879698 C36.3803859,12.8816275 36.415344,12.8670554 36.5032299,12.8282466 C36.5032299,12.8282466 36.5103272,15.9547651 36.5103272,17.4500336 C36.4336158,17.4179446 36.372005,17.3911409 36.372005,17.3911409 C36.372005,17.3911409 36.0342785,16.0048993 34.7641611,16.0048993 L27.3858977,16.0048993 L27.3858977,24.7657047 C32.129849,24.7657047 35.0670805,24.9608054 36.3849916,24.2837668 C37.4014933,23.7503356 38.1125839,21.7788674 38.1125839,21.7788674 C38.1125839,21.7788674 38.182047,21.7513842 38.2546057,21.7170302 C38.092953,23.4311829 37.9515352,24.9171644 37.788599,26.6909648 Z M2.19110738,30.2472483 L42.739656,30.2472483 L42.739656,2.18106544 L2.19110738,2.18106544 L2.19110738,30.2472483 Z" id="Fill-2" fill="#000000"></path>
                </g>
            </g>
        </g>
    </g>
</svg>
